public/assets/routes_avatar/simplifiedTaxInputTaxTransfer.svg

<?xml version="1.0" encoding="UTF-8"?>
<svg width="60px" height="60px" viewBox="0 0 60 60" version="1.1" xmlns="http://www.w3.org/2000/svg" xmlns:xlink="http://www.w3.org/1999/xlink">
    <!-- Generator: Sketch 49.3 (51167) - http://www.bohemiancoding.com/sketch -->
    <title>进项管理-简易计税进项税额转出台账</title>
    <desc>Created with Sketch.</desc>
    <defs>
        <rect id="path-1" x="0.5" y="4" width="24" height="24" rx="2"></rect>
        <path d="M21.8497466,21.597088 L26.311005,21.597088 C26.3117827,21.597088 26.3125603,21.5952585 26.3117827,21.5952585 L24.6289932,19.6925551 C24.4929081,19.5388752 24.4882423,19.2836568 24.6196616,19.1235735 C24.7503033,18.9634903 24.9672619,18.9580017 25.103347,19.1125964 L27.3950201,21.7032003 C27.4618962,21.7791255 27.5,21.8843231 27.5,21.9931797 C27.5,22.102951 27.4618962,22.2072338 27.3950201,22.283159 L25.0909049,24.8874844 C25.0248064,24.9624948 24.9392672,25 24.853728,25 C24.763523,25 24.6740957,24.9588357 24.6072196,24.8765072 C24.4765779,24.716424 24.480466,24.4612056 24.6165511,24.3075257 L26.2993406,22.4048222 C26.3001182,22.4039075 26.2993406,22.4029927 26.298563,22.4029927 L21.8419703,22.4029927 C21.6600051,22.4029927 21.5114779,22.2355914 21.5005911,22.0251963 C21.4889267,21.7910174 21.6514512,21.597088 21.8497466,21.597088 Z" id="path-2"></path>
    </defs>
    <g id="icon" stroke="none" stroke-width="1" fill="none" fill-rule="evenodd">
        <g id="进项管理-简易计税进项税额转出台账">
            <circle id="Oval-Copy" fill="#5473F2" cx="30" cy="30" r="30"></circle>
            <g id="Group-34" transform="translate(14.000000, 16.000000)">
                <rect id="Rectangle-5" stroke="#FFFFFF" stroke-width="1.5" x="5.25" y="0.75" width="22.5" height="22.5" rx="2"></rect>
                <g id="Rectangle-5-Copy">
                    <use fill="#5473F2" fill-rule="evenodd" xlink:href="#path-1"></use>
                    <rect stroke="#FFFFFF" stroke-width="1.5" x="1.25" y="4.75" width="22.5" height="22.5" rx="2"></rect>
                </g>
                <rect id="Rectangle-3-Copy-3" fill="#FFFFFF" x="4.5" y="8" width="15" height="1.5" rx="0.75"></rect>
                <rect id="Rectangle-3-Copy-4" fill="#FFFFFF" x="4.5" y="13" width="15" height="1.5" rx="0.75"></rect>
                <circle id="Oval-5" fill="#5473F2" cx="24" cy="21.5" r="7.5"></circle>
                <circle id="Oval-5" stroke="#FFFFFF" stroke-width="1.5" fill="#5473F2" cx="24.5" cy="22" r="6"></circle>
                <g id="Shape" fill-rule="nonzero">
                    <use fill="#FFFFFF" fill-rule="evenodd" xlink:href="#path-2"></use>
                    <path stroke="#FFFFFF" stroke-width="0.25" d="M26.0359744,21.472088 L24.5354102,19.7754237 C24.3583833,19.5755086 24.3528814,19.2515406 24.5228176,19.0445404 C24.7022579,18.8246613 25.0100495,18.8174279 25.1969718,19.029775 L27.4888213,21.6205787 C27.5762315,21.7198165 27.625,21.8545082 27.625,21.9931797 C27.625,22.1324609 27.5764154,22.2663341 27.4886395,22.3659866 L25.1846887,24.9701258 C25.0968669,25.0697885 24.978099,25.125 24.853728,25.125 C24.7226177,25.125 24.598685,25.0642551 24.5103755,24.9555403 C24.3410282,24.7480288 24.3462214,24.4242558 24.5229175,24.2247142 L26.0235609,22.5279927 L21.8419703,22.5279927 C21.5897008,22.5279927 21.3899376,22.305684 21.3757459,22.0314148 C21.3607992,21.7313409 21.5740572,21.472088 21.8497466,21.472088 L26.0359744,21.472088 Z"></path>
                </g>
                <path d="M4.679415,19.5656774 L5.35291743,19.5656774 L5.35291743,23.056 L4.679415,23.056 L4.679415,19.5656774 Z M9.04422882,23.0237419 L8.50672207,23.0237419 L8.34482245,22.4172903 L8.91470912,22.4366452 C9.04422882,22.4366452 9.11546465,22.339871 9.11546465,22.1592258 L9.11546465,19.4172903 L6.75820615,19.4172903 L6.75820615,18.8043871 L9.7824911,18.8043871 L9.7824911,22.339871 C9.7824911,22.7914839 9.53640367,23.0237419 9.04422882,23.0237419 Z M5.98756395,19.8237419 L8.46786616,19.8237419 L8.46786616,22.3656774 L5.98756395,22.3656774 L5.98756395,19.8237419 Z M7.83969563,21.8108387 L7.83969563,21.3463226 L6.62868645,21.3463226 L6.62868645,21.8108387 L7.83969563,21.8108387 Z M6.62868645,20.8172903 L7.83969563,20.8172903 L7.83969563,20.3656774 L6.62868645,20.3656774 L6.62868645,20.8172903 Z M5.51481705,18.539871 C5.85156827,18.8430968 6.11060766,19.1076129 6.29193524,19.339871 L5.7932844,19.6818065 C5.59900486,19.4366452 5.34644145,19.1527742 5.0226422,18.8430968 L5.51481705,18.539871 Z M5.33348948,18.0624516 C5.17806584,18.3205161 5.00969023,18.5592258 4.82188667,18.7785806 L4.252,18.4108387 C4.64055909,17.9850323 4.91255046,17.5334194 5.07445008,17.056 L5.72204857,17.1979355 C5.68319266,17.2947097 5.65081274,17.3850323 5.61843281,17.4753548 L7.17914517,17.4753548 L7.17914517,18.0624516 L6.36964706,18.0624516 C6.49916676,18.2430968 6.60278251,18.4108387 6.68049433,18.572129 L6.08470372,18.7979355 C5.968136,18.539871 5.82566433,18.2947097 5.67024069,18.0624516 L5.33348948,18.0624516 Z M8.09225904,18.0624516 C7.97569131,18.2882581 7.83969563,18.4947097 7.69722396,18.6882581 L7.12733729,18.3205161 C7.44466055,17.9269677 7.66484404,17.5076129 7.79436373,17.0624516 L8.43548624,17.2043871 C8.40310631,17.2947097 8.37072639,17.3850323 8.34482245,17.4753548 L10.1321943,17.4753548 L10.1321943,18.0624516 L9.20612844,18.0624516 C9.32269617,18.2237419 9.41335996,18.3785806 9.49107178,18.5205161 L8.89528117,18.7463226 C8.77871344,18.5140645 8.64919374,18.2818065 8.50024609,18.0624516 L8.09225904,18.0624516 Z M12.4246929,19.7011613 L11.6605267,19.7011613 L11.6605267,17.2689032 L15.7598251,17.2689032 L15.7598251,19.7011613 L13.2147631,19.7011613 C13.1240993,19.8301935 13.0269595,19.9592258 12.9233438,20.0753548 L16.252,20.0753548 C16.232572,20.7850323 16.1937161,21.3592258 16.1354323,21.7979355 C16.0706724,22.2301935 15.9670567,22.5334194 15.831061,22.7076129 C15.6950653,22.8753548 15.4748818,22.9656774 15.1640345,22.9785806 L14.2379687,22.9785806 L14.0695931,22.3463226 C14.3351085,22.3656774 14.5941479,22.3785806 14.8402353,22.3785806 C15.1187026,22.3785806 15.3000302,22.2689032 15.390694,22.0624516 C15.4813578,21.8430968 15.5396417,21.3785806 15.5655456,20.6689032 L15.1057507,20.6689032 C14.548816,21.856 13.668082,22.6495484 12.4765008,23.0366452 L12.0944177,22.4689032 C13.1435273,22.1463226 13.9141695,21.5463226 14.4063443,20.6689032 L13.7781738,20.6689032 C13.3248548,21.3527742 12.6060205,21.8947097 11.6216708,22.2882581 L11.1942558,21.7656774 C12.0231819,21.4753548 12.6384004,21.1076129 13.0399115,20.6689032 L12.2627933,20.6689032 C11.951946,20.8882581 11.6087188,21.0882581 11.2266357,21.2689032 L10.8575046,20.6753548 C11.550435,20.4172903 12.0749897,20.0882581 12.4246929,19.7011613 Z M15.0927987,19.1334194 L15.0927987,18.7463226 L12.3275532,18.7463226 L12.3275532,19.1334194 L15.0927987,19.1334194 Z M12.3275532,18.2172903 L15.0927987,18.2172903 L15.0927987,17.8366452 L12.3275532,17.8366452 L12.3275532,18.2172903 Z" id="简易" fill="#FFFFFF"></path>
            </g>
        </g>
    </g>
</svg>

<svg width="60" height="60" xmlns="http://www.w3.org/2000/svg" xmlns:xlink="http://www.w3.org/1999/xlink"><defs><rect id="a" x=".5" y="4" width="24" height="24" rx="2"/><path d="M21.85 21.597h4.461s.002-.002 0-.002l-1.682-1.902a.454.454 0 0 1-.01-.57.307.307 0 0 1 .484-.01l2.292 2.59a.442.442 0 0 1 .105.29.44.44 0 0 1-.105.29l-2.304 2.604a.316.316 0 0 1-.237.113.317.317 0 0 1-.247-.123.455.455 0 0 1 .01-.57l1.682-1.902v-.002h-4.457c-.182 0-.33-.167-.341-.378-.012-.234.15-.428.349-.428z" id="b"/></defs><g fill="none" fill-rule="evenodd"><circle fill="#5473F2" cx="30" cy="30" r="30"/><g transform="translate(14 16)"><rect stroke="#FFF" stroke-width="1.5" x="5.25" y=".75" width="22.5" height="22.5" rx="2"/><use fill="#5473F2" xlink:href="#a"/><rect stroke="#FFF" stroke-width="1.5" x="1.25" y="4.75" width="22.5" height="22.5" rx="2"/><rect fill="#FFF" x="4.5" y="8" width="15" height="1.5" rx=".75"/><rect fill="#FFF" x="4.5" y="13" width="15" height="1.5" rx=".75"/><circle fill="#5473F2" cx="24" cy="21.5" r="7.5"/><circle stroke="#FFF" stroke-width="1.5" fill="#5473F2" cx="24.5" cy="22" r="6"/><g fill-rule="nonzero"><use fill="#FFF" fill-rule="evenodd" xlink:href="#b"/><path stroke="#FFF" stroke-width=".25" d="M26.036 21.472l-1.5-1.697a.578.578 0 0 1-.013-.73.432.432 0 0 1 .674-.015l2.292 2.59c.087.1.136.235.136.373 0 .14-.049.273-.136.373l-2.304 2.604a.44.44 0 0 1-.331.155.441.441 0 0 1-.344-.17.58.58 0 0 1 .013-.73l1.5-1.697h-4.181c-.252 0-.452-.222-.466-.497-.015-.3.198-.559.474-.559h4.186z"/></g><path d="M4.68 19.566h.673v3.49h-.674v-3.49zm4.364 3.458h-.537l-.162-.607.57.02c.13 0 .2-.097.2-.278v-2.742H6.758v-.613h3.024v3.536c0 .451-.246.684-.738.684zm-3.056-3.2h2.48v2.542h-2.48v-2.542zM7.84 21.81v-.465H6.629v.465h1.21zm-1.211-.994h1.21v-.451H6.63v.451zM5.515 18.54c.337.303.596.568.777.8l-.499.342a8.305 8.305 0 0 0-.77-.839l.492-.303zm-.182-.478a5.294 5.294 0 0 1-.511.717l-.57-.368c.389-.426.66-.878.822-1.355l.648.142c-.039.097-.071.187-.104.277H7.18v.587h-.81c.13.181.234.349.311.51l-.595.226a5.116 5.116 0 0 0-.415-.736h-.337zm2.76 0a4.673 4.673 0 0 1-.396.626l-.57-.367a3.59 3.59 0 0 0 .667-1.259l.641.142c-.032.09-.064.181-.09.271h1.787v.587h-.926c.117.162.207.317.285.459l-.596.225a6.034 6.034 0 0 0-.395-.684h-.408zm4.332 1.64h-.764v-2.433h4.099V19.7h-2.545c-.09.13-.188.258-.292.374h3.329c-.02.71-.058 1.284-.117 1.723-.064.432-.168.735-.304.91-.136.167-.356.258-.667.27h-.926l-.168-.632c.265.02.524.033.77.033.279 0 .46-.11.55-.317.091-.219.15-.683.176-1.393h-.46c-.557 1.187-1.438 1.98-2.63 2.368l-.382-.568c1.05-.323 1.82-.923 2.312-1.8h-.628c-.453.684-1.172 1.226-2.156 1.62l-.428-.523c.83-.29 1.444-.658 1.846-1.097h-.777c-.311.22-.654.42-1.036.6l-.37-.594c.693-.258 1.218-.587 1.568-.974zm2.668-.569v-.387h-2.765v.387h2.765zm-2.765-.916h2.765v-.38h-2.765v.38z" fill="#FFF"/></g></g></svg>
